assets/icons/admin-link.svg

<svg viewBox="0 0 18 18" xmlns="http://www.w3.org/2000/svg"><path d="m15 16h-12c-.55 0-1-.45-1-1v-12c0-.55.45-1 1-1h5c.55 0 1-.45 1-1s-.45-1-1-1h-6c-1.11 0-2 .9-2 2v14c0 1.1.9 2 2 2h14c1.1 0 2-.9 2-2v-6c0-.55-.45-1-1-1s-1 .45-1 1v5c0 .55-.45 1-1 1zm-4-15c0 .55.45 1 1 1h2.59l-9.13 9.13c-.39.39-.39 1.02 0 1.41s1.02.39 1.41 0l9.13-9.13v2.59c0 .55.45 1 1 1s1-.45 1-1v-6h-6c-.55 0-1 .45-1 1z" fill="#3e67f8"/></svg>

<svg width="18" height="18" viewBox="0 0 18 18" fill="none" xmlns="http://www.w3.org/2000/svg">
<path d="M15 16H3C2.45 16 2 15.55 2 15V3C2 2.45 2.45 2 3 2H8C8.55 2 9 1.55 9 1C9 0.45 8.55 0 8 0H2C0.89 0 0 0.9 0 2V16C0 17.1 0.9 18 2 18H16C17.1 18 18 17.1 18 16V10C18 9.45 17.55 9 17 9C16.45 9 16 9.45 16 10V15C16 15.55 15.55 16 15 16ZM11 1C11 1.55 11.45 2 12 2H14.59L5.46 11.13C5.07 11.52 5.07 12.15 5.46 12.54C5.85 12.93 6.48 12.93 6.87 12.54L16 3.41V6C16 6.55 16.45 7 17 7C17.55 7 18 6.55 18 6V0H12C11.45 0 11 0.45 11 1Z" fill="#3E67F8"/>
</svg>
